icons-common/external-link.svg

<svg height="1em" width="auto" viewBox="0 0 105 105" fill="currentColor" xmlns="http://www.w3.org/2000/svg">
    <path d="M62.5001 77.1718C71.2153 76.4522 72.0149 75.3728 72.7744 66.7775C73.0943 63.5793 77.9716 63.2594 78.7312 66.3378C82.4492 78.3312 73.9338 86.8865 61.9004 83.1286C58.6621 82.2491 59.2218 77.3717 62.5001 77.1718Z"
          />
    <path d="M39.7117 83.1266C27.6782 86.8445 19.1629 78.3292 22.8809 66.3357C23.6804 63.2174 28.5178 63.6172 28.8376 66.7755C29.2374 69.534 29.3173 73.2919 30.9564 75.091C32.7555 76.7301 36.5134 76.81 39.2719 77.2098C42.4702 77.5296 42.79 82.407 39.7117 83.1666V83.1266Z"
          />
    <path d="M22.8809 44.1083C19.1629 32.1149 27.6782 23.5596 39.7117 27.3175C42.83 28.1171 42.4302 32.9544 39.2719 33.2742C36.5134 33.674 32.7555 33.754 30.9564 35.3931C29.3173 37.1921 29.2374 40.9501 28.8376 43.7086C28.5178 46.9068 23.6404 47.2266 22.8809 44.1483V44.1083Z"
          />
    <path d="M76.4933 44.4303L75.9736 26.0003L79.9714 29.9981L61.5415 29.4784C59.6225 29.4385 58.1034 27.7993 58.1433 25.8804C58.1833 24.0014 59.7025 22.5222 61.5415 22.4823L80.0114 22.0025C82.2502 21.9226 84.0892 23.7616 84.0092 26.0003L83.4895 44.4303C83.3696 48.8678 76.6133 48.8678 76.4933 44.4303Z"
          />
    <path d="M81.8095 29.1971C78.6512 32.9151 75.2131 36.3932 71.815 39.8713C68.3369 43.2695 64.8588 46.7076 61.1408 49.8659C59.6616 51.1052 57.4628 50.9453 56.1835 49.4261C55.0641 48.1068 55.1041 46.1879 56.1835 44.9086C59.3418 41.1906 62.7799 37.7125 66.178 34.2344C69.6561 30.8363 73.1343 27.3981 76.8522 24.2399C78.3314 23.0005 80.5302 23.1604 81.8095 24.6796C82.9289 25.9989 82.8889 27.9178 81.8095 29.1971Z"
          />
</svg>

<svg xmlns="http://www.w3.org/2000/svg" width="auto" height="1em" fill="currentColor" viewBox="0 0 105 105">
    <path d="M62.5 77.172c8.715-.72 9.515-1.8 10.274-10.394.32-3.199 5.198-3.519 5.957-.44 3.718 11.993-4.797 20.549-16.83 16.79-3.239-.879-2.68-5.756.6-5.956m-22.789 5.955c-12.034 3.718-20.55-4.798-16.831-16.791.8-3.119 5.637-2.719 5.957.44.4 2.758.48 6.516 2.118 8.315 1.8 1.64 5.557 1.719 8.316 2.119 3.198.32 3.518 5.197.44 5.957zM22.88 44.108c-3.717-11.993 4.798-20.548 16.832-16.79 3.118.8 2.718 5.636-.44 5.956-2.759.4-6.517.48-8.316 2.12-1.639 1.798-1.719 5.556-2.118 8.315-.32 3.198-5.198 3.518-5.957.44zm53.613.322L75.973 26l3.998 3.998-18.43-.52c-1.918-.04-3.438-1.679-3.398-3.598a3.475 3.475 0 0 1 3.398-3.398l18.47-.48A3.864 3.864 0 0 1 84.01 26l-.52 18.43c-.12 4.438-6.876 4.438-6.996 0"/>
    <path d="M81.81 29.197c-3.159 3.718-6.597 7.196-9.995 10.674-3.478 3.398-6.956 6.837-10.674 9.995a3.504 3.504 0 0 1-4.957-.44 3.506 3.506 0 0 1 0-4.517c3.158-3.718 6.596-7.196 9.994-10.675 3.478-3.398 6.956-6.836 10.674-9.994a3.504 3.504 0 0 1 4.957.44 3.506 3.506 0 0 1 0 4.517"/>
</svg>
